src/images/icons/calendar-check.svg

<svg width="24" height="24" viewBox="0 0 24 24" fill="none" xmlns="http://www.w3.org/2000/svg">
<path d="M21 10H3M21 12.5V8.8C21 7.11984 21 6.27976 20.673 5.63803C20.3854 5.07354 19.9265 4.6146 19.362 4.32698C18.7202 4 17.8802 4 16.2 4H7.8C6.11984 4 5.27976 4 4.63803 4.32698C4.07354 4.6146 3.6146 5.07354 3.32698 5.63803C3 6.27976 3 7.11984 3 8.8V17.2C3 18.8802 3 19.7202 3.32698 20.362C3.6146 20.9265 4.07354 21.3854 4.63803 21.673C5.27976 22 6.11984 22 7.8 22H12M16 2V6M8 2V6M14.5 19L16.5 21L21 16.5" stroke="#84828A" stroke-width="2" stroke-linecap="round" stroke-linejoin="round"/>
</svg>

<svg xmlns="http://www.w3.org/2000/svg" width="24" height="24" fill="none"><path stroke-linecap="round" stroke-linejoin="round" stroke-width="2" d="M21 10H3m18 2.5V8.8c0-1.68 0-2.52-.327-3.162a3 3 0 0 0-1.311-1.311C18.72 4 17.88 4 16.2 4H7.8c-1.68 0-2.52 0-3.162.327a3 3 0 0 0-1.311 1.311C3 6.28 3 7.12 3 8.8v8.4c0 1.68 0 2.52.327 3.162a3 3 0 0 0 1.311 1.311C5.28 22 6.12 22 7.8 22H12m4-20v4M8 2v4m6.5 13 2 2 4.5-4.5"/></svg>
